!!!Genre:	A gute nakht
!!!Mode:	Minor
!!!Listening/dance:	listening
!!!One_Mode:	yes
**kern
*I"P1
*clefG2
*k[b-e-]
*g:
*M3/4
*>A
4dd
=1
(8ddL
8ggJ)
4gg
(8ggL
8ddJ)
=2
(8ddL
8ggJ)
4gg
4gg
=3
12ffL
12gg
12ffJ
4ee-
4dd
=4
(8qff/
8ee-L)
8ddJ
4cc
8r
8cc
=5
(8ccL
8ffJ)
4ff
(8ffL
8ccJ)
=6
(8ccL
8ffJ)
4ff
4ff
=7
12ee-L
12ff
12ee-J
4dd
4gg
=8
4.dd
8cc
12b-L
12a
12gJ
=9!|:
*>B
(4f
4b-
4dd)
=10
12ffL
12gg
12ffJ
4ee-
4dd
=11
12ccL
12dd
12ccJ
4b-
8aL
8b-J
=12
12ccL
12b-
12aJ
4.g
8gg
=13
12ggL
12ff
12ee-J
4dd
8b-L
8ddJ
=14
12ccL
12dd
12ccJ
4b-
12a-XL
12g
12a-J
=15
4.g
8gg
8ddL
8b-J
*>B1
=16
2g
4f
*>B2
=17:|!
2g
==
*-
